X: 36387
T: Sean Reid's
R: reel
M: 4/4
K: Gmajor
|:DG~G2 BG~G2|cA~A2 dcAd|DG~G2 ~B3d|cAdc AGGF|
DG~G2 BG~G2|cA~A2 dcAd|~g3a gfde|1 fdcA AGGF:|2 fdcA AGBd||
|:g2 ga gfde|f2 fg fdcA|dg~g2 gfde|fdcA AGBd|g2ag gfde|
f2 fg fdcA|1 ~g3a gfde|fdcA AGBd:|2 dg~g2 bgag|fdcA AGGF||

